X:1
T:McCarthy's Widow
M:2/4
L:1/8
K:F
 c3/2 A/2| GF F3/2 F/2| FA cA| AG F3/2 F/2| F2 z A| BB B3/2 A/2| GG G3/2 F/2|\
 EG c3/2 c/2| c2 z/2 c/2c/2 c/2| ce df| ec AF| BA Bd| c2 A3/2 G/2|\
 FF FA| A c3| G3/2 F/2 F3/2 E/2| F2 z A| GG c=B| =BA AA| AG Bc| e2 z e/2e/2|\
 fe dd| d=B GG| =BB AB| c2 ce| ff ge| fc AF| BA Bd| c2 z C| FF FF|\
 AA c3/2 A/2| GF FF| F2 CC| F F2 G| A A2 A| GF FE| F3 A| B B2 A| G G2 F|\
 EG cc| c2 z e/2e/2| ff ge| fc AF| Bc dB| Ac z c| ff ff| ed cB| A2 G2|\
 F2||
